X: 40516
T: Tommy Hill's
R: hornpipe
M: 4/4
K: Dmajor
FEDF AFDc|dBcd ecAg|fdge fdec|dBcd ecAG|
FEDF AFDc|dBcd ecAg|fdge fdec|d2ecd2z2:|
|:ecAc efge|afdf bgeg|afdf geaf|gefd ecAG|
FEDF AFDc|dBcd ecAg|fdge fdec|d2ecd2z2:|

